X:1
T: the Darlin' Girl From Clare
R:hornpipe
Z:Rough transcription by Jeff Lindqvist during lunch at 1 PM, May 19th, -00
M:C
L:1/8
K:A
"A"c4 "A"cBAB | "A"c2A2 "A"B2c2 | "D"d2d2 "Dm"A2B2 | "A"c4- "A"c4 |
"A"c4 "A"cBAB | "A"c2A2 "A"G2A2 | "D"B2A2 "E"G2A2 | "F#m"(3FAc (3fcA "F#m"F4 |
"A"e2ef "A"edcd | "A7"e2A2 "A7"e2A2 | "D"f2d2 "D"a2f2 | "A"e2c2 "A"A4 |
"D"f^efg "D"agaf | "A"efec "A"ABcA | "B7"c2A2 "E7"G2B2 | "A"AFEC "A"A,4 ||
|| "A"e3^d "A"efaf | "A"efec "A"ABcA | "F#m"(3FFF (3FFF "F#m"F4 | "F#m"(3fff (3fff "F#m"f4 |
"A"e3f "A"agaf | "A"efec "A"ABcA | "B7"B2B2- "B7"B2B2 | "E"e4- "E"e4 |
"D"f^efg "D"agaf | "A"efec "A"ABcA | "D"d2c2 "E"B2AB | "F#m"(3cBA (3BAG "F#m"F4 |
"D"f^efg "D"agaf | "A"efec "A"ABcA | "B7"B2A2 "E7"G2B2 | "A"A4- "A"A4 ||
